X:19
T:B019-  The Baffled Knight
S:via BBBM, from 'Silvia', 1731
Q:1/4=120
L:1/8
M:6/8
K:G
G|\
G2dd2c|B2AG2f|g3/2a/2g g3/2e/2^d|e3f3|\
g2fe2d|c3/2d/2B A3/2B/2c|d2B A3/2B/2F|G3d2|]

